docs/_site/assets/images/src/Social/GitHub.svg

<svg width="20" height="20" viewBox="0 0 20 20" fill="none" xmlns="http://www.w3.org/2000/svg">
<path d="M6.96694 11.2296C6.61057 11.2296 6.30569 11.394 6.06065 11.7309C5.81491 12.0621 5.69354 12.472 5.69354 12.9587C5.69354 13.4459 5.81721 13.8574 6.06065 14.1895C6.30569 14.5231 6.60905 14.6884 6.96694 14.6884C7.29874 14.6884 7.58761 14.5216 7.83104 14.1895C8.07601 13.8574 8.19815 13.4459 8.19815 12.9587C8.19815 12.4736 8.07448 12.063 7.83104 11.7309C7.58757 11.3955 7.30108 11.2296 6.96694 11.2296Z" fill="#EAEAEA"/>
<path d="M13.073 11.2296C12.7196 11.2296 12.4131 11.394 12.1674 11.7309C11.9224 12.0621 11.8018 12.472 11.8018 12.9587C11.8018 13.4459 11.9263 13.8574 12.1674 14.1895C12.4131 14.5231 12.7181 14.6884 13.073 14.6884C13.4063 14.6884 13.6943 14.5216 13.9393 14.1895C14.1851 13.8574 14.3072 13.4459 14.3072 12.9587C14.3072 12.4736 14.1836 12.063 13.9393 11.7309C13.6943 11.3955 13.4101 11.2296 13.073 11.2296Z" fill="#EAEAEA"/>
<path d="M17.4132 6.71875H17.4109C17.4109 6.71875 17.52 6.16156 17.4231 5.18828C17.3379 4.215 17.1313 3.31961 16.7933 2.5C16.7933 2.5 16.6206 2.52969 16.2949 2.61313C15.9692 2.69656 15.4324 2.85918 14.6957 3.19C13.9715 3.52359 13.2119 3.96297 12.4185 4.49879C11.8793 4.34512 11.0745 4.2668 9.99687 4.2668C8.96996 4.2668 8.1643 4.34539 7.5759 4.49902C5.83402 3.29359 4.37934 2.62617 3.1973 2.5C2.8616 3.31961 2.655 4.2184 2.57055 5.19414C2.47687 6.16832 2.58742 6.73043 2.58742 6.73043C1.6398 7.7559 1.25 9.23988 1.25 10.4607C1.25 11.4077 1.2757 12.2606 1.48926 13.0185C1.7066 13.7728 1.98387 14.3907 2.3134 14.863C2.64977 15.3365 3.05605 15.7532 3.54684 16.1106C4.03383 16.4745 4.48387 16.7341 4.89016 16.9003C5.29879 17.0711 5.76418 17.1973 6.2957 17.2855C6.81641 17.3787 7.21125 17.4279 7.48621 17.4416C7.48621 17.4416 8.57996 17.5 10 17.5C11.4201 17.5 12.5116 17.4416 12.5116 17.4416C12.7858 17.4279 13.1813 17.3778 13.7043 17.2855C14.2335 17.1957 14.7013 17.0665 15.1083 16.9003C15.5146 16.7326 15.9654 16.4745 16.4547 16.1106C16.9439 15.7578 17.3495 15.3396 17.6859 14.863C18.0154 14.3907 18.2911 13.7728 18.51 13.0185C18.7243 12.2606 18.7501 11.4019 18.7501 10.4548C18.75 9.27301 18.3587 7.77344 17.4132 6.71875ZM14.8587 15.8455C13.7704 16.3569 12.1674 16.5625 10.0414 16.5625L9.95773 16.561C7.83105 16.561 6.2327 16.356 5.15898 15.8418C4.08445 15.3304 3.54684 14.2771 3.54684 12.688C3.54684 11.7376 3.88168 10.9696 4.54223 10.3791C4.82949 10.1246 5.18434 9.94871 5.62211 9.84332C6.05684 9.7434 6.45625 9.73543 6.83184 9.74703C7.19895 9.76324 7.71273 9.83281 8.36871 9.88234C9.02457 9.93301 9.51309 10 10 10C10.457 10 11.063 9.92356 12.0353 9.84535C13.0115 9.76836 13.7343 9.7293 14.202 9.80629C14.682 9.88449 15.0999 10.0486 15.457 10.3821C16.1498 10.9974 16.4962 11.7691 16.4962 12.6901C16.4961 14.2786 15.9439 15.3335 14.8587 15.8455Z" fill="#EAEAEA"/>
</svg>

<svg width="20" height="20" fill="none" xmlns="http://www.w3.org/2000/svg"><path d="M6.967 11.23c-.356 0-.661.164-.906.5-.246.332-.367.742-.367 1.229 0 .487.123.898.367 1.23.245.334.548.5.906.5.332 0 .62-.167.864-.5.245-.332.367-.743.367-1.23 0-.485-.124-.896-.367-1.228-.243-.335-.53-.501-.864-.501zm6.106 0c-.353 0-.66.164-.906.5-.245.332-.365.742-.365 1.229 0 .487.124.898.365 1.23.246.334.551.5.906.5.333 0 .621-.167.866-.5.246-.332.368-.743.368-1.23 0-.485-.123-.896-.368-1.228-.245-.335-.529-.501-.866-.501z" fill="#EAEAEA"/><path d="M17.413 6.719h-.002s.109-.557.012-1.53c-.085-.974-.292-1.87-.63-2.689 0 0-.172.03-.498.113a9.905 9.905 0 00-1.6.577c-.723.334-1.483.773-2.277 1.309-.539-.154-1.343-.232-2.421-.232-1.027 0-1.833.078-2.421.232C5.834 3.294 4.379 2.626 3.197 2.5a9.152 9.152 0 00-.626 2.694c-.094.974.016 1.536.016 1.536C1.64 7.756 1.25 9.24 1.25 10.46c0 .948.026 1.8.24 2.558.217.755.494 1.373.823 1.845.337.473.743.89 1.234 1.248.487.363.937.623 1.343.79.409.17.874.296 1.406.384.52.094.915.143 1.19.157 0 0 1.094.058 2.514.058 1.42 0 2.512-.058 2.512-.058.274-.014.67-.064 1.192-.157.53-.09.997-.218 1.404-.385a6.364 6.364 0 001.347-.79c.489-.352.895-.77 1.23-1.247.33-.472.606-1.09.825-1.845.214-.757.24-1.616.24-2.563 0-1.182-.391-2.682-1.337-3.736zm-2.554 9.127c-1.089.51-2.692.716-4.818.716l-.083-.001c-2.127 0-3.725-.205-4.799-.72-1.075-.51-1.612-1.564-1.612-3.153 0-.95.335-1.718.995-2.309.287-.254.642-.43 1.08-.536.435-.1.834-.108 1.21-.096.367.016.88.086 1.537.135C9.025 9.933 9.513 10 10 10c.457 0 1.063-.076 2.035-.155.976-.077 1.7-.116 2.167-.039.48.078.898.243 1.255.576.693.615 1.04 1.387 1.04 2.308 0 1.589-.553 2.644-1.638 3.155z" fill="#EAEAEA"/></svg>
